images/50599938.svg

<?xml version="1.0" encoding="UTF-8"?>
<svg xmlns="http://www.w3.org/2000/svg" xmlns:xlink="http://www.w3.org/1999/xlink" width="300pt" height="300pt" viewBox="0 0 300 300" version="1.1">
<defs>
<g>
<symbol overflow="visible" id="glyph0-0">
<path style="stroke:none;" d="M 0.453125 1.59375 L 0.453125 -6.34375 L 4.953125 -6.34375 L 4.953125 1.59375 Z M 0.953125 1.09375 L 4.453125 1.09375 L 4.453125 -5.84375 L 0.953125 -5.84375 Z M 0.953125 1.09375 "/>
</symbol>
<symbol overflow="visible" id="glyph0-1">
<path style="stroke:none;" d="M 3.546875 -5.953125 C 2.898438 -5.953125 2.382812 -5.710938 2 -5.234375 C 1.625 -4.753906 1.4375 -4.101562 1.4375 -3.28125 C 1.4375 -2.445312 1.625 -1.789062 2 -1.3125 C 2.382812 -0.832031 2.898438 -0.59375 3.546875 -0.59375 C 4.191406 -0.59375 4.703125 -0.832031 5.078125 -1.3125 C 5.453125 -1.789062 5.640625 -2.445312 5.640625 -3.28125 C 5.640625 -4.101562 5.453125 -4.753906 5.078125 -5.234375 C 4.703125 -5.710938 4.191406 -5.953125 3.546875 -5.953125 Z M 3.546875 -6.6875 C 4.460938 -6.6875 5.195312 -6.375 5.75 -5.75 C 6.300781 -5.132812 6.578125 -4.3125 6.578125 -3.28125 C 6.578125 -2.238281 6.300781 -1.410156 5.75 -0.796875 C 5.195312 -0.179688 4.460938 0.125 3.546875 0.125 C 2.617188 0.125 1.878906 -0.179688 1.328125 -0.796875 C 0.773438 -1.410156 0.5 -2.238281 0.5 -3.28125 C 0.5 -4.3125 0.773438 -5.132812 1.328125 -5.75 C 1.878906 -6.375 2.617188 -6.6875 3.546875 -6.6875 Z M 3.546875 -6.6875 "/>
</symbol>
<symbol overflow="visible" id="glyph0-2">
<path style="stroke:none;" d="M 0.890625 -6.5625 L 2.078125 -6.5625 L 4.984375 -1.078125 L 4.984375 -6.5625 L 5.84375 -6.5625 L 5.84375 0 L 4.65625 0 L 1.75 -5.484375 L 1.75 0 L 0.890625 0 Z M 0.890625 -6.5625 "/>
</symbol>
<symbol overflow="visible" id="glyph0-3">
<path style="stroke:none;" d="M 0.890625 -6.5625 L 1.765625 -6.5625 L 1.765625 -3.875 L 5 -3.875 L 5 -6.5625 L 5.890625 -6.5625 L 5.890625 0 L 5 0 L 5 -3.125 L 1.765625 -3.125 L 1.765625 0 L 0.890625 0 Z M 0.890625 -6.5625 "/>
</symbol>
<symbol overflow="visible" id="glyph1-0">
<path style="stroke:none;" d="M 0.40625 1.421875 L 0.40625 -5.640625 L 4.40625 -5.640625 L 4.40625 1.421875 Z M 0.84375 0.96875 L 3.953125 0.96875 L 3.953125 -5.1875 L 0.84375 -5.1875 Z M 0.84375 0.96875 "/>
</symbol>
<symbol overflow="visible" id="glyph1-1">
<path style="stroke:none;" d="M 3.6875 -5.015625 L 3.6875 -2.84375 L 5.859375 -2.84375 L 5.859375 -2.171875 L 3.6875 -2.171875 L 3.6875 0 L 3.03125 0 L 3.03125 -2.171875 L 0.84375 -2.171875 L 0.84375 -2.84375 L 3.03125 -2.84375 L 3.03125 -5.015625 Z M 3.6875 -5.015625 "/>
</symbol>
</g>
</defs>
<g id="surface27305">
<rect x="0" y="0" width="300" height="300" style="fill:rgb(100%,100%,100%);fill-opacity:1;stroke:none;"/>
<path style="fill:none;stroke-width:1.2;stroke-linecap:butt;stroke-linejoin:miter;stroke:rgb(100%,0%,0%);stroke-opacity:1;stroke-miterlimit:10;" d="M 75.78125 126.363281 L 79.300781 136.664062 "/>
<path style="fill:none;stroke-width:1.2;stroke-linecap:butt;stroke-linejoin:miter;stroke:rgb(0%,0%,0%);stroke-opacity:1;stroke-miterlimit:10;" d="M 79.300781 136.664062 L 82.824219 146.960938 "/>
<path style="fill:none;stroke-width:1.2;stroke-linecap:butt;stroke-linejoin:miter;stroke:rgb(100%,0%,0%);stroke-opacity:1;stroke-miterlimit:10;" d="M 80.628906 124.707031 L 84.148438 135.007812 "/>
<path style="fill:none;stroke-width:1.2;stroke-linecap:butt;stroke-linejoin:miter;stroke:rgb(0%,0%,0%);stroke-opacity:1;stroke-miterlimit:10;" d="M 84.148438 135.007812 L 87.667969 145.304688 "/>
<path style=" stroke:none;fill-rule:nonzero;fill:rgb(100%,100%,100%);fill-opacity:1;" d="M 70.207031 120.035156 L 78.207031 120.035156 L 78.207031 131.035156 L 70.207031 131.035156 Z M 70.207031 120.035156 "/>
<g style="fill:rgb(100%,0%,0%);fill-opacity:1;">
  <use xlink:href="#glyph0-1" x="70.207031" y="128.698242"/>
</g>
<path style="fill:none;stroke-width:1.2;stroke-linecap:butt;stroke-linejoin:miter;stroke:rgb(0%,0%,0%);stroke-opacity:1;stroke-miterlimit:10;" d="M 85.246094 146.132812 L 78.085938 154.332031 "/>
<path style="fill:none;stroke-width:1.2;stroke-linecap:butt;stroke-linejoin:miter;stroke:rgb(0%,0%,100%);stroke-opacity:1;stroke-miterlimit:10;" d="M 78.085938 154.332031 L 70.925781 162.53125 "/>
<path style="fill:none;stroke-width:1.2;stroke-linecap:butt;stroke-linejoin:miter;stroke:rgb(0%,0%,0%);stroke-opacity:1;stroke-miterlimit:10;" d="M 85.246094 146.132812 L 106.605469 150.335938 "/>
<path style="fill:none;stroke-width:1.2;stroke-linecap:butt;stroke-linejoin:miter;stroke:rgb(0%,0%,100%);stroke-opacity:1;stroke-miterlimit:10;" d="M 70.925781 162.53125 L 60.246094 160.429688 "/>
<path style="fill:none;stroke-width:1.2;stroke-linecap:butt;stroke-linejoin:miter;stroke:rgb(0%,0%,0%);stroke-opacity:1;stroke-miterlimit:10;" d="M 60.246094 160.429688 L 49.570312 158.328125 "/>
<path style=" stroke:none;fill-rule:nonzero;fill:rgb(100%,100%,100%);fill-opacity:1;" d="M 63.925781 157.03125 L 77.925781 157.03125 L 77.925781 168.03125 L 63.925781 168.03125 Z M 63.925781 157.03125 "/>
<g style="fill:rgb(0%,0%,100%);fill-opacity:1;">
  <use xlink:href="#glyph0-2" x="63.925781" y="165.694336"/>
  <use xlink:href="#glyph0-3" x="70.90332" y="165.694336"/>
</g>
<path style="fill:none;stroke-width:1.2;stroke-linecap:butt;stroke-linejoin:miter;stroke:rgb(0%,0%,0%);stroke-opacity:1;stroke-miterlimit:10;" d="M 49.570312 158.328125 L 35.25 174.722656 "/>
<path style="fill:none;stroke-width:1.2;stroke-linecap:butt;stroke-linejoin:miter;stroke:rgb(0%,0%,0%);stroke-opacity:1;stroke-miterlimit:10;" d="M 106.605469 150.335938 L 115.757812 170.085938 "/>
<path style="fill:none;stroke-width:1.2;stroke-linecap:butt;stroke-linejoin:miter;stroke:rgb(0%,0%,0%);stroke-opacity:1;stroke-miterlimit:10;" d="M 112.167969 150.15625 L 119.492188 165.957031 "/>
<path style="fill:none;stroke-width:1.2;stroke-linecap:butt;stroke-linejoin:miter;stroke:rgb(0%,0%,0%);stroke-opacity:1;stroke-miterlimit:10;" d="M 122.558594 135.527344 L 106.605469 150.335938 "/>
<path style="fill:none;stroke-width:1.2;stroke-linecap:butt;stroke-linejoin:miter;stroke:rgb(0%,0%,0%);stroke-opacity:1;stroke-miterlimit:10;" d="M 115.757812 170.085938 L 126.566406 168.785156 "/>
<path style="fill:none;stroke-width:1.2;stroke-linecap:butt;stroke-linejoin:miter;stroke:rgb(0%,0%,100%);stroke-opacity:1;stroke-miterlimit:10;" d="M 126.566406 168.785156 L 137.371094 167.480469 "/>
<path style="fill:none;stroke-width:1.2;stroke-linecap:butt;stroke-linejoin:miter;stroke:rgb(0%,0%,100%);stroke-opacity:1;stroke-miterlimit:10;" d="M 137.371094 167.480469 L 153.765625 181.800781 "/>
<path style="fill:none;stroke-width:1.2;stroke-linecap:butt;stroke-linejoin:miter;stroke:rgb(0%,0%,0%);stroke-opacity:1;stroke-miterlimit:10;" d="M 141.574219 146.121094 L 139.472656 156.800781 "/>
<path style="fill:none;stroke-width:1.2;stroke-linecap:butt;stroke-linejoin:miter;stroke:rgb(0%,0%,100%);stroke-opacity:1;stroke-miterlimit:10;" d="M 139.472656 156.800781 L 137.371094 167.480469 "/>
<path style=" stroke:none;fill-rule:nonzero;fill:rgb(100%,100%,100%);fill-opacity:1;" d="M 134.371094 161.980469 L 141.371094 161.980469 L 141.371094 172.980469 L 134.371094 172.980469 Z M 134.371094 161.980469 "/>
<g style="fill:rgb(0%,0%,100%);fill-opacity:1;">
  <use xlink:href="#glyph0-2" x="134.371094" y="170.643555"/>
</g>
<path style="fill:none;stroke-width:1.2;stroke-linecap:butt;stroke-linejoin:miter;stroke:rgb(0%,0%,100%);stroke-opacity:1;stroke-miterlimit:10;" d="M 153.765625 181.800781 L 164.066406 178.28125 "/>
<path style="fill:none;stroke-width:1.2;stroke-linecap:butt;stroke-linejoin:miter;stroke:rgb(0%,0%,0%);stroke-opacity:1;stroke-miterlimit:10;" d="M 164.066406 178.28125 L 174.367188 174.757812 "/>
<path style="fill:none;stroke-width:1.2;stroke-linecap:butt;stroke-linejoin:miter;stroke:rgb(0%,0%,100%);stroke-opacity:1;stroke-miterlimit:10;" d="M 154.171875 176.25 L 162.410156 173.433594 "/>
<path style="fill:none;stroke-width:1.2;stroke-linecap:butt;stroke-linejoin:miter;stroke:rgb(0%,0%,0%);stroke-opacity:1;stroke-miterlimit:10;" d="M 162.410156 173.433594 L 170.648438 170.617188 "/>
<path style=" stroke:none;fill-rule:nonzero;fill:rgb(100%,100%,100%);fill-opacity:1;" d="M 150.765625 176.300781 L 157.765625 176.300781 L 157.765625 187.300781 L 150.765625 187.300781 Z M 150.765625 176.300781 "/>
<g style="fill:rgb(0%,0%,100%);fill-opacity:1;">
  <use xlink:href="#glyph0-2" x="150.765625" y="184.963867"/>
</g>
<path style="fill:none;stroke-width:1.2;stroke-linecap:butt;stroke-linejoin:miter;stroke:rgb(0%,0%,0%);stroke-opacity:1;stroke-miterlimit:10;" d="M 174.367188 174.757812 L 176.464844 164.082031 "/>
<path style="fill:none;stroke-width:1.2;stroke-linecap:butt;stroke-linejoin:miter;stroke:rgb(0%,0%,100%);stroke-opacity:1;stroke-miterlimit:10;" d="M 176.464844 164.082031 L 178.566406 153.402344 "/>
<path style="fill:none;stroke-width:1.2;stroke-linecap:butt;stroke-linejoin:miter;stroke:rgb(0%,0%,100%);stroke-opacity:1;stroke-miterlimit:10;" d="M 178.566406 153.402344 L 170.371094 146.242188 "/>
<path style="fill:none;stroke-width:1.2;stroke-linecap:butt;stroke-linejoin:miter;stroke:rgb(0%,0%,0%);stroke-opacity:1;stroke-miterlimit:10;" d="M 170.371094 146.242188 L 162.171875 139.082031 "/>
<path style="fill:none;stroke-width:1.2;stroke-linecap:butt;stroke-linejoin:miter;stroke:rgb(0%,0%,100%);stroke-opacity:1;stroke-miterlimit:10;" d="M 173.558594 155.828125 L 167 150.101562 "/>
<path style="fill:none;stroke-width:1.2;stroke-linecap:butt;stroke-linejoin:miter;stroke:rgb(0%,0%,0%);stroke-opacity:1;stroke-miterlimit:10;" d="M 167 150.101562 L 160.441406 144.371094 "/>
<path style=" stroke:none;fill-rule:nonzero;fill:rgb(100%,100%,100%);fill-opacity:1;" d="M 168.566406 145.902344 L 189.566406 145.902344 L 189.566406 160.902344 L 168.566406 160.902344 Z M 168.566406 145.902344 "/>
<g style="fill:rgb(0%,0%,100%);fill-opacity:1;">
  <use xlink:href="#glyph0-2" x="168.566406" y="158.003906"/>
  <use xlink:href="#glyph0-3" x="175.543945" y="158.003906"/>
</g>
<g style="fill:rgb(0%,0%,100%);fill-opacity:1;">
  <use xlink:href="#glyph1-1" x="182.558594" y="153.121094"/>
</g>
<path style="fill:none;stroke-width:1.2;stroke-linecap:butt;stroke-linejoin:miter;stroke:rgb(0%,0%,0%);stroke-opacity:1;stroke-miterlimit:10;" d="M 162.171875 139.082031 L 164.273438 128.402344 "/>
<path style="fill:none;stroke-width:1.2;stroke-linecap:butt;stroke-linejoin:miter;stroke:rgb(0%,0%,100%);stroke-opacity:1;stroke-miterlimit:10;" d="M 164.273438 128.402344 L 166.375 117.722656 "/>
<path style="fill:none;stroke-width:1.2;stroke-linecap:butt;stroke-linejoin:miter;stroke:rgb(0%,0%,0%);stroke-opacity:1;stroke-miterlimit:10;" d="M 162.171875 139.082031 L 141.574219 146.121094 "/>
<path style="fill:none;stroke-width:1.2;stroke-linecap:butt;stroke-linejoin:miter;stroke:rgb(0%,0%,100%);stroke-opacity:1;stroke-miterlimit:10;" d="M 166.375 117.722656 L 176.671875 114.203125 "/>
<path style="fill:none;stroke-width:1.2;stroke-linecap:butt;stroke-linejoin:miter;stroke:rgb(0%,0%,0%);stroke-opacity:1;stroke-miterlimit:10;" d="M 176.671875 114.203125 L 186.972656 110.683594 "/>
<path style=" stroke:none;fill-rule:nonzero;fill:rgb(100%,100%,100%);fill-opacity:1;" d="M 159.375 112.222656 L 173.375 112.222656 L 173.375 123.222656 L 159.375 123.222656 Z M 159.375 112.222656 "/>
<g style="fill:rgb(0%,0%,100%);fill-opacity:1;">
  <use xlink:href="#glyph0-2" x="159.375" y="120.885742"/>
  <use xlink:href="#glyph0-3" x="166.352539" y="120.885742"/>
</g>
<path style="fill:none;stroke-width:1.2;stroke-linecap:butt;stroke-linejoin:miter;stroke:rgb(0%,0%,0%);stroke-opacity:1;stroke-miterlimit:10;" d="M 186.972656 110.683594 L 203.367188 125.003906 "/>
<path style="fill:none;stroke-width:1.2;stroke-linecap:butt;stroke-linejoin:miter;stroke:rgb(0%,0%,0%);stroke-opacity:1;stroke-miterlimit:10;" d="M 191.980469 108.257812 L 205.097656 119.710938 "/>
<path style="fill:none;stroke-width:1.2;stroke-linecap:butt;stroke-linejoin:miter;stroke:rgb(0%,0%,0%);stroke-opacity:1;stroke-miterlimit:10;" d="M 191.171875 89.324219 L 186.972656 110.683594 "/>
<path style="fill:none;stroke-width:1.2;stroke-linecap:butt;stroke-linejoin:miter;stroke:rgb(0%,0%,0%);stroke-opacity:1;stroke-miterlimit:10;" d="M 203.367188 125.003906 L 223.964844 117.960938 "/>
<path style="fill:none;stroke-width:1.2;stroke-linecap:butt;stroke-linejoin:miter;stroke:rgb(0%,0%,0%);stroke-opacity:1;stroke-miterlimit:10;" d="M 223.964844 117.960938 L 228.167969 96.601562 "/>
<path style="fill:none;stroke-width:1.2;stroke-linecap:butt;stroke-linejoin:miter;stroke:rgb(0%,0%,0%);stroke-opacity:1;stroke-miterlimit:10;" d="M 219.359375 114.835938 L 222.722656 97.75 "/>
<path style="fill:none;stroke-width:1.2;stroke-linecap:butt;stroke-linejoin:miter;stroke:rgb(0%,0%,0%);stroke-opacity:1;stroke-miterlimit:10;" d="M 223.964844 117.960938 L 240.363281 132.28125 "/>
<path style="fill:none;stroke-width:1.2;stroke-linecap:butt;stroke-linejoin:miter;stroke:rgb(0%,0%,0%);stroke-opacity:1;stroke-miterlimit:10;" d="M 228.167969 96.601562 L 211.773438 82.285156 "/>
<path style="fill:none;stroke-width:1.2;stroke-linecap:butt;stroke-linejoin:miter;stroke:rgb(0%,0%,0%);stroke-opacity:1;stroke-miterlimit:10;" d="M 211.773438 82.285156 L 191.171875 89.324219 "/>
<path style="fill:none;stroke-width:1.2;stroke-linecap:butt;stroke-linejoin:miter;stroke:rgb(0%,0%,0%);stroke-opacity:1;stroke-miterlimit:10;" d="M 211.367188 87.835938 L 194.890625 93.46875 "/>
<path style="fill:none;stroke-width:1.2;stroke-linecap:butt;stroke-linejoin:miter;stroke:rgb(0%,0%,0%);stroke-opacity:1;stroke-miterlimit:10;" d="M 191.171875 89.324219 L 174.777344 75.007812 "/>
<path style="fill:none;stroke-width:1.2;stroke-linecap:butt;stroke-linejoin:miter;stroke:rgb(0%,0%,0%);stroke-opacity:1;stroke-miterlimit:10;" d="M 241.191406 134.703125 L 251.488281 131.183594 "/>
<path style="fill:none;stroke-width:1.2;stroke-linecap:butt;stroke-linejoin:miter;stroke:rgb(100%,0%,0%);stroke-opacity:1;stroke-miterlimit:10;" d="M 251.488281 131.183594 L 261.789062 127.664062 "/>
<path style="fill:none;stroke-width:1.2;stroke-linecap:butt;stroke-linejoin:miter;stroke:rgb(0%,0%,0%);stroke-opacity:1;stroke-miterlimit:10;" d="M 239.535156 129.855469 L 249.832031 126.335938 "/>
<path style="fill:none;stroke-width:1.2;stroke-linecap:butt;stroke-linejoin:miter;stroke:rgb(100%,0%,0%);stroke-opacity:1;stroke-miterlimit:10;" d="M 249.832031 126.335938 L 260.132812 122.816406 "/>
<path style="fill:none;stroke-width:1.2;stroke-linecap:butt;stroke-linejoin:miter;stroke:rgb(0%,0%,0%);stroke-opacity:1;stroke-miterlimit:10;" d="M 240.363281 132.28125 L 238.261719 142.960938 "/>
<path style="fill:none;stroke-width:1.2;stroke-linecap:butt;stroke-linejoin:miter;stroke:rgb(0%,0%,100%);stroke-opacity:1;stroke-miterlimit:10;" d="M 238.261719 142.960938 L 236.160156 153.640625 "/>
<path style=" stroke:none;fill-rule:nonzero;fill:rgb(100%,100%,100%);fill-opacity:1;" d="M 256.960938 119.742188 L 264.960938 119.742188 L 264.960938 130.742188 L 256.960938 130.742188 Z M 256.960938 119.742188 "/>
<g style="fill:rgb(100%,0%,0%);fill-opacity:1;">
  <use xlink:href="#glyph0-1" x="256.960938" y="128.405273"/>
</g>
<path style="fill:none;stroke-width:1.2;stroke-linecap:butt;stroke-linejoin:miter;stroke:rgb(0%,0%,100%);stroke-opacity:1;stroke-miterlimit:10;" d="M 236.160156 153.640625 L 244.359375 160.796875 "/>
<path style="fill:none;stroke-width:1.2;stroke-linecap:butt;stroke-linejoin:miter;stroke:rgb(0%,0%,0%);stroke-opacity:1;stroke-miterlimit:10;" d="M 244.359375 160.796875 L 252.554688 167.957031 "/>
<path style=" stroke:none;fill-rule:nonzero;fill:rgb(100%,100%,100%);fill-opacity:1;" d="M 229.160156 148.140625 L 243.160156 148.140625 L 243.160156 159.140625 L 229.160156 159.140625 Z M 229.160156 148.140625 "/>
<g style="fill:rgb(0%,0%,100%);fill-opacity:1;">
  <use xlink:href="#glyph0-2" x="229.160156" y="156.803711"/>
  <use xlink:href="#glyph0-3" x="236.137695" y="156.803711"/>
</g>
<path style="fill:none;stroke-width:1.2;stroke-linecap:butt;stroke-linejoin:miter;stroke:rgb(0%,0%,0%);stroke-opacity:1;stroke-miterlimit:10;" d="M 252.554688 167.957031 L 248.355469 189.316406 "/>
<path style="fill:none;stroke-width:1.2;stroke-linecap:butt;stroke-linejoin:miter;stroke:rgb(0%,0%,0%);stroke-opacity:1;stroke-miterlimit:10;" d="M 248.355469 189.316406 L 264.75 203.636719 "/>
<path style="fill:none;stroke-width:1.2;stroke-linecap:butt;stroke-linejoin:miter;stroke:rgb(0%,0%,0%);stroke-opacity:1;stroke-miterlimit:10;" d="M 264.75 203.636719 L 260.546875 224.992188 "/>
<path style="fill:none;stroke-width:1.2;stroke-linecap:butt;stroke-linejoin:miter;stroke:rgb(0%,0%,0%);stroke-opacity:1;stroke-miterlimit:10;" d="M 141.574219 146.121094 L 122.558594 135.527344 "/>
<path style="fill:none;stroke-width:1.2;stroke-linecap:butt;stroke-linejoin:miter;stroke:rgb(0%,0%,0%);stroke-opacity:1;stroke-miterlimit:10;" d="M 137.179688 149.539062 L 121.964844 141.058594 "/>
<path style="fill:none;stroke-width:1.2;stroke-linecap:butt;stroke-linejoin:miter;stroke:rgb(0%,0%,0%);stroke-opacity:1;stroke-miterlimit:10;" d="M 122.558594 135.527344 L 119.953125 113.914062 "/>
</g>
</svg>

<svg xmlns="http://www.w3.org/2000/svg" xmlns:xlink="http://www.w3.org/1999/xlink" width="300pt" height="300pt" viewBox="0 0 300 300"><defs><symbol overflow="visible"><path d="M.453 1.594v-7.938h4.5v7.938zm.5-.5h3.5v-6.938h-3.5zm0 0"/></symbol><symbol overflow="visible" id="a"><path d="M3.547-5.953c-.65 0-1.164.242-1.547.72-.375.48-.563 1.13-.563 1.952 0 .835.188 1.49.563 1.967.383.48.898.72 1.547.72.644 0 1.156-.24 1.53-.72.376-.476.564-1.132.564-1.968 0-.822-.187-1.474-.562-1.954-.375-.477-.887-.72-1.53-.72zm0-.734c.914 0 1.648.312 2.203.937.55.617.828 1.438.828 2.47 0 1.042-.277 1.87-.828 2.483-.555.617-1.29.922-2.203.922-.93 0-1.668-.305-2.22-.922C.774-1.41.5-2.237.5-3.28c0-1.033.273-1.853.828-2.47.55-.625 1.29-.938 2.22-.938zm0 0"/></symbol><symbol overflow="visible" id="b"><path d="M.89-6.563H2.08l2.906 5.485v-5.484h.86V0H4.656L1.75-5.484V0H.89zm0 0"/></symbol><symbol overflow="visible" id="c"><path d="M.89-6.563h.876v2.688H5v-2.688h.89V0H5v-3.125H1.766V0H.89zm0 0"/></symbol><symbol overflow="visible"><path d="M.406 1.422V-5.64h4V1.42zM.844.97h3.11v-6.157H.843zm0 0"/></symbol><symbol overflow="visible" id="d"><path d="M3.688-5.016v2.172h2.17v.672H3.69V0H3.03v-2.172H.845v-.672H3.03v-2.172zm0 0"/></symbol></defs><g><path fill="#fff" d="M0 0h300v300H0z"/><path d="M75.78 126.363l3.52 10.3" stroke-width="1.2" stroke="#f00" stroke-miterlimit="10" fill="none"/><path d="M79.3 136.664l3.524 10.297" stroke-width="1.2" stroke="#000" stroke-miterlimit="10" fill="none"/><path d="M80.63 124.707l3.518 10.3" stroke-width="1.2" stroke="#f00" stroke-miterlimit="10" fill="none"/><path d="M84.148 135.008l3.52 10.297" stroke-width="1.2" stroke="#000" stroke-miterlimit="10" fill="none"/><path d="M70.207 120.035h8v11h-8zm0 0" fill="#fff"/><use xlink:href="#a" x="70.207" y="128.698" fill="#f00"/><path d="M85.246 146.133l-7.16 8.2" stroke-width="1.2" stroke="#000" stroke-miterlimit="10" fill="none"/><path d="M78.086 154.332l-7.16 8.2" stroke-width="1.2" stroke="#00f" stroke-miterlimit="10" fill="none"/><path d="M85.246 146.133l21.36 4.203" stroke-width="1.2" stroke="#000" stroke-miterlimit="10" fill="none"/><path d="M70.926 162.53l-10.68-2.1" stroke-width="1.2" stroke="#00f" stroke-miterlimit="10" fill="none"/><path d="M60.246 160.43l-10.676-2.102" stroke-width="1.2" stroke="#000" stroke-miterlimit="10" fill="none"/><path d="M63.926 157.03h14v11h-14zm0 0" fill="#fff"/><g fill="#00f"><use xlink:href="#b" x="63.926" y="165.694"/><use xlink:href="#c" x="70.903" y="165.694"/></g><path d="M49.57 158.328l-14.32 16.395M106.605 150.336l9.153 19.75M112.168 150.156l7.324 15.8M122.56 135.527l-15.955 14.81M115.758 170.086l10.808-1.3" stroke-width="1.2" stroke="#000" stroke-miterlimit="10" fill="none"/><path d="M126.566 168.785l10.805-1.305M137.37 167.48l16.396 14.32" stroke-width="1.2" stroke="#00f" stroke-miterlimit="10" fill="none"/><path d="M141.574 146.12l-2.1 10.68" stroke-width="1.2" stroke="#000" stroke-miterlimit="10" fill="none"/><path d="M139.473 156.8l-2.102 10.68" stroke-width="1.2" stroke="#00f" stroke-miterlimit="10" fill="none"/><path d="M134.37 161.98h7v11h-7zm0 0" fill="#fff"/><use xlink:href="#b" x="134.371" y="170.644" fill="#00f"/><path d="M153.766 181.8l10.3-3.52" stroke-width="1.2" stroke="#00f" stroke-miterlimit="10" fill="none"/><path d="M164.066 178.28l10.3-3.522" stroke-width="1.2" stroke="#000" stroke-miterlimit="10" fill="none"/><path d="M154.172 176.25l8.238-2.816" stroke-width="1.2" stroke="#00f" stroke-miterlimit="10" fill="none"/><path d="M162.41 173.434l8.238-2.817" stroke-width="1.2" stroke="#000" stroke-miterlimit="10" fill="none"/><path d="M150.766 176.3h7v11h-7zm0 0" fill="#fff"/><use xlink:href="#b" x="150.766" y="184.964" fill="#00f"/><path d="M174.367 174.758l2.098-10.676" stroke-width="1.2" stroke="#000" stroke-miterlimit="10" fill="none"/><path d="M176.465 164.082l2.1-10.68M178.566 153.402l-8.195-7.16" stroke-width="1.2" stroke="#00f" stroke-miterlimit="10" fill="none"/><path d="M170.37 146.242l-8.198-7.16" stroke-width="1.2" stroke="#000" stroke-miterlimit="10" fill="none"/><path d="M173.56 155.828l-6.56-5.726" stroke-width="1.2" stroke="#00f" stroke-miterlimit="10" fill="none"/><path d="M167 150.102l-6.56-5.73" stroke-width="1.2" stroke="#000" stroke-miterlimit="10" fill="none"/><path d="M168.566 145.902h21v15h-21zm0 0" fill="#fff"/><g fill="#00f"><use xlink:href="#b" x="168.566" y="158.004"/><use xlink:href="#c" x="175.544" y="158.004"/></g><use xlink:href="#d" x="182.559" y="153.121" fill="#00f"/><path d="M162.172 139.082l2.1-10.68" stroke-width="1.2" stroke="#000" stroke-miterlimit="10" fill="none"/><path d="M164.273 128.402l2.102-10.68" stroke-width="1.2" stroke="#00f" stroke-miterlimit="10" fill="none"/><path d="M162.172 139.082l-20.598 7.04" stroke-width="1.2" stroke="#000" stroke-miterlimit="10" fill="none"/><path d="M166.375 117.723l10.297-3.52" stroke-width="1.2" stroke="#00f" stroke-miterlimit="10" fill="none"/><path d="M176.672 114.203l10.3-3.52" stroke-width="1.2" stroke="#000" stroke-miterlimit="10" fill="none"/><path d="M159.375 112.223h14v11h-14zm0 0" fill="#fff"/><g fill="#00f"><use xlink:href="#b" x="159.375" y="120.886"/><use xlink:href="#c" x="166.353" y="120.886"/></g><path d="M186.973 110.684l16.394 14.32M191.98 108.258l13.118 11.453M191.172 89.324l-4.2 21.36M203.367 125.004l20.598-7.043M223.965 117.96l4.203-21.358M219.36 114.836l3.363-17.086M223.965 117.96l16.398 14.32M228.168 96.602l-16.395-14.317M211.773 82.285l-20.6 7.04M211.367 87.836L194.89 93.47M191.172 89.324l-16.395-14.316M241.19 134.703l10.298-3.52" stroke-width="1.2" stroke="#000" stroke-miterlimit="10" fill="none"/><path d="M251.488 131.184l10.3-3.52" stroke-width="1.2" stroke="#f00" stroke-miterlimit="10" fill="none"/><path d="M239.535 129.855l10.297-3.52" stroke-width="1.2" stroke="#000" stroke-miterlimit="10" fill="none"/><path d="M249.832 126.336l10.3-3.52" stroke-width="1.2" stroke="#f00" stroke-miterlimit="10" fill="none"/><path d="M240.363 132.28l-2.1 10.68" stroke-width="1.2" stroke="#000" stroke-miterlimit="10" fill="none"/><path d="M238.262 142.96l-2.102 10.68" stroke-width="1.2" stroke="#00f" stroke-miterlimit="10" fill="none"/><path d="M256.96 119.742h8v11h-8zm0 0" fill="#fff"/><use xlink:href="#a" x="256.961" y="128.405" fill="#f00"/><path d="M236.16 153.64l8.2 7.157" stroke-width="1.2" stroke="#00f" stroke-miterlimit="10" fill="none"/><path d="M244.36 160.797l8.195 7.16" stroke-width="1.2" stroke="#000" stroke-miterlimit="10" fill="none"/><path d="M229.16 148.14h14v11h-14zm0 0" fill="#fff"/><g fill="#00f"><use xlink:href="#b" x="229.16" y="156.804"/><use xlink:href="#c" x="236.138" y="156.804"/></g><path d="M252.555 167.957l-4.2 21.36M248.355 189.316l16.395 14.32M264.75 203.637l-4.203 21.355M141.574 146.12l-19.015-10.593M137.18 149.54l-15.215-8.48M122.56 135.527l-2.607-21.613" stroke-width="1.2" stroke="#000" stroke-miterlimit="10" fill="none"/></g></svg>
